src/assets/svg/nrmp-color.svg

<svg viewBox="0 0 184 46" xmlns="http://www.w3.org/2000/svg"><path d="M77.5345 0.743896H68.0128L55.7947 33.0228V0.743896H41.9757L35.7824 24.3921H35.6812L29.4879 0.748052H15.6899V36.21H24.4996V9.28734H24.6007L32.1549 36.21H39.3172L46.8713 9.28734H46.9724V36.21H64.1873L66.4624 29.8523H79.0006L81.2083 36.21H90.9786L77.5345 0.743896ZM68.6195 22.9959L72.6978 10.5797H72.7821L76.7593 22.9959H68.6195Z" fill="#14678F"></path>
<path d="M113.544 8.69312H102.813V36.21H93.4473V8.69312H82.7207V0.743896H113.544V8.69312Z" fill="#14678F"></path>
<path d="M136.505 13.4094C136.004 9.84823 133.181 7.94507 129.238 7.94507C123.196 7.94507 120.879 13.2141 120.879 18.4789C120.879 23.7438 123.213 29.0086 129.238 29.0086C133.619 29.0086 136.139 26.5154 136.488 22.4515H145.858C145.353 31.5933 138.553 36.9537 129.427 36.9537C118.578 36.9537 111.542 28.7593 111.542 18.4789C111.542 8.19855 118.578 0 129.457 0C137.213 0 145.622 4.86594 145.888 13.4094H136.505Z" fill="#14678F"></path>
<path d="M148.745 1.07739H158.11V13.9923H170.451V1.07739H179.816V36.5435H170.451V21.9415H158.11V36.5435H148.745V1.07739Z" fill="#14678F"></path>
<path d="M2.84386 25.4558V29.1956H12.7026V32.4576H2.84386V36.1975H0V25.4558H2.84386Z" fill="#14678F"></path>
<path d="M0 24.0555V20.7935H4.63444V16.4968H0V13.2307H12.7026V16.4968H7.4783V20.7935H12.7026V24.0555H0Z" fill="#14678F"></path>
<path d="M0 11.0241V1.05124H2.65006V7.77048H4.87459V1.62053H7.43617V7.77048H9.85451V0.868408H12.7026V11.0241H0Z" fill="#14678F"></path>
<path d="M0.219238 39.4719H0.905978L4.65145 44.8739V39.4719H5.26657V45.8421H4.59668L0.851208 40.4401V45.8421H0.219238V39.4719Z" fill="#14678F"></path>
<path d="M8.63289 39.4719H9.31541L11.8433 45.8421H11.1818L10.3982 43.8642H7.47849L6.70327 45.8421H6.0376L8.63289 39.4719ZM7.65965 43.3447H10.1875L8.92359 40.0786L7.65965 43.3447Z" fill="#14678F"></path>
<path d="M11.1187 39.4719H16.2165V39.9872H13.9752V45.8421H13.3769V39.9872H11.1187V39.4719Z" fill="#14678F"></path>
<path d="M16.8652 39.4719H17.4761V45.8421H16.8652V39.4719Z" fill="#14678F"></path>
<path d="M21.512 39.3513C23.5301 39.3513 24.537 40.9345 24.537 42.6756C24.537 44.4167 23.5301 45.9999 21.512 45.9999C19.4939 45.9999 18.4785 44.4167 18.4785 42.6756C18.4785 40.9345 19.4855 39.3513 21.512 39.3513ZM21.512 45.4763C23.1972 45.4763 23.9261 44.0677 23.9261 42.6756C23.9261 41.2836 23.2057 39.8707 21.512 39.8707C19.8183 39.8707 19.0894 41.2794 19.0894 42.6756C19.0894 44.0718 19.8099 45.4597 21.512 45.4597V45.4763Z" fill="#14678F"></path>
<path d="M25.4854 39.4719H26.1679L29.9176 44.8739V39.4719H30.5285V45.8421H29.8628L26.1131 40.4401V45.8421H25.4854V39.4719Z" fill="#14678F"></path>
<path d="M34.0758 39.4719H34.7625L37.2904 45.8421H36.6247L35.8411 43.8642H32.913L32.142 45.8421H31.4932L34.0758 39.4719ZM33.1026 43.3447H35.6304L34.3665 40.0786L33.1026 43.3447Z" fill="#14678F"></path>
<path d="M37.8677 39.4719H38.4828V45.3269H42.085V45.8421H37.8719L37.8677 39.4719Z" fill="#14678F"></path>
<path d="M44.1323 39.4719H47.0815C48.1432 39.4719 49.0364 39.9789 49.0364 41.1341C49.0658 41.5109 48.953 41.8852 48.7198 42.1851C48.4865 42.4849 48.1491 42.6893 47.7725 42.7588C48.6151 42.8669 48.851 43.4403 48.8974 44.1966C48.9226 44.6371 48.9226 45.5097 49.1923 45.8297H48.5182C48.3963 45.5141 48.3376 45.1783 48.3454 44.8407C48.2949 43.9473 48.2233 42.9583 47.0604 42.9998H44.7348V45.8297H44.1323V39.4719ZM44.7432 42.497H47.031C47.2069 42.5139 47.3845 42.4942 47.5522 42.4391C47.72 42.3841 47.8741 42.2949 48.0048 42.1774C48.1354 42.0599 48.2396 41.9167 48.3106 41.7571C48.3816 41.5974 48.4179 41.4248 48.4171 41.2504C48.4171 40.4734 47.9494 40.0038 47.031 40.0038H44.7432V42.497Z" fill="#14678F"></path>
<path d="M50.1362 39.4719H54.5769V39.9872H50.7471V42.2893H54.3325V42.8087H50.7471V45.3269H54.619V45.8421H50.1362V39.4719Z" fill="#14678F"></path>
<path d="M55.7649 43.7477C55.7354 45.0567 56.6918 45.4597 57.8715 45.4597C58.5456 45.4597 59.5567 45.0941 59.5567 44.1674C59.5567 43.4444 58.8279 43.1577 58.2338 43.0122L56.8014 42.6673C56.043 42.4803 55.352 42.123 55.352 41.1298C55.352 40.5065 55.7733 39.3347 57.5639 39.3347C58.8279 39.3347 59.9528 40.0162 59.9443 41.3168H59.3292C59.2955 40.3445 58.4866 39.8541 57.5766 39.8541C56.7339 39.8541 55.9629 40.1741 55.9629 41.1215C55.9629 41.7199 56.4137 41.9526 56.9362 42.0939L58.5035 42.4803C59.4135 42.7213 60.1887 43.1119 60.1887 44.1425C60.1887 44.5829 60.0118 45.9667 57.7325 45.9667C56.2073 45.9667 55.0908 45.2852 55.1624 43.7353L55.7649 43.7477Z" fill="#14678F"></path>
<path d="M61.1958 39.4719H61.8278V45.8421H61.1958V39.4719Z" fill="#14678F"></path>
<path d="M63.1509 39.4719H65.3754C67.3092 39.5135 68.3246 40.5689 68.3246 42.6591C68.3246 44.7493 67.305 45.8006 65.3754 45.8421H63.1509V39.4719ZM63.7618 45.3269H65.0678C66.9132 45.3269 67.7179 44.5581 67.7179 42.6591C67.7179 40.7601 66.9132 39.9789 65.0678 39.9872H63.7618V45.3269Z" fill="#14678F"></path>
<path d="M69.3188 39.4719H73.7595V39.9872H69.9298V42.2893H73.5152V42.8087H69.9298V45.3269H73.8059V45.8421H69.3188V39.4719Z" fill="#14678F"></path>
<path d="M74.6523 39.4719H75.3349L79.0804 44.8739H79.1014V39.4719H79.7123V45.8421H79.0298L75.2801 40.4401V45.8421H74.6692L74.6523 39.4719Z" fill="#14678F"></path>
<path d="M80.3062 39.4719H85.4209V39.9872H83.1795V45.8421H82.5644V39.9872H80.323L80.3062 39.4719Z" fill="#14678F"></path>
<path d="M88.4927 39.4719H89.3943L91.6188 45.0568L93.8476 39.4719H94.7492V45.8421H94.1341V40.3362L91.939 45.8421H91.3197L89.112 40.3362V45.8421H88.4969L88.4927 39.4719Z" fill="#14678F"></path>
<path d="M97.8962 39.4719H98.5829L101.111 45.8421H100.454L99.6699 43.8642H96.7207L95.9539 45.8421H95.2925L97.8962 39.4719ZM96.923 43.3447H99.4508L98.208 40.0786L96.923 43.3447Z" fill="#14678F"></path>
<path d="M100.382 39.4719H105.48V39.9872H103.238V45.8421H102.627V39.9872H100.382V39.4719Z" fill="#14678F"></path>
<path d="M110.789 41.3999C110.697 40.9537 110.449 40.5537 110.087 40.2707C109.726 39.9878 109.274 39.8402 108.813 39.8541C107.127 39.8541 106.39 41.2628 106.39 42.659C106.39 44.0552 107.111 45.4597 108.813 45.4597C110.005 45.4597 110.759 44.5497 110.877 43.4153H111.488C111.32 44.9777 110.317 45.9792 108.813 45.9792C106.786 45.9792 105.779 44.396 105.779 42.6549C105.779 40.9138 106.786 39.3306 108.813 39.3306C110.03 39.3306 111.235 40.0536 111.4 41.4082L110.789 41.3999Z" fill="#14678F"></path>
<path d="M112.427 39.4719H113.038V42.2602H116.855V39.4927H117.47V45.8629H116.855V42.7755H113.038V45.8629H112.427V39.4719Z" fill="#14678F"></path>
<path d="M118.81 39.4719H119.425V45.8421H118.81V39.4719Z" fill="#14678F"></path>
<path d="M120.757 39.4719H121.439L125.189 44.8739V39.4719H125.8V45.8421H125.117L121.372 40.4401H121.351V45.8421H120.74L120.757 39.4719Z" fill="#14678F"></path>
<path d="M132.781 45.842H132.339L132.259 44.6827C132.06 45.0915 131.742 45.4329 131.346 45.6637C130.95 45.8944 130.493 46.0042 130.034 45.9792C128.008 45.9792 126.997 44.396 126.997 42.6549C126.997 40.9138 128.008 39.3306 130.034 39.3306C131.382 39.3306 132.482 40.0536 132.718 41.4456H132.103C132.01 40.9788 131.75 40.5605 131.37 40.2674C130.99 39.9743 130.516 39.8261 130.034 39.85C128.349 39.85 127.607 41.2587 127.607 42.6549C127.607 44.0511 128.332 45.4556 130.034 45.4556C131.454 45.4556 132.284 44.4666 132.259 43.1161H130.068V42.6008H132.798L132.781 45.842Z" fill="#14678F"></path>
<path d="M136.644 39.4719H139.501C140.651 39.4719 141.41 40.1409 141.41 41.292C141.41 42.443 140.651 43.112 139.501 43.112H137.243V45.8421H136.632L136.644 39.4719ZM137.243 42.5926H139.349C140.192 42.5926 140.778 42.1771 140.778 41.292C140.778 40.4069 140.192 39.9872 139.349 39.9872H137.243V42.5926Z" fill="#14678F"></path>
<path d="M142.319 39.4719H145.269C146.33 39.4719 147.223 39.9789 147.223 41.1341C147.253 41.5109 147.14 41.8852 146.907 42.1851C146.673 42.4849 146.336 42.6893 145.959 42.7588C146.802 42.8669 147.038 43.4403 147.084 44.1966C147.11 44.6371 147.11 45.5097 147.379 45.8297H146.705C146.583 45.5141 146.525 45.1783 146.532 44.8407C146.478 43.9473 146.406 42.9583 145.247 42.9998H142.93V45.8297H142.319V39.4719ZM142.93 42.497H145.218C145.394 42.5139 145.572 42.4942 145.739 42.4391C145.907 42.3841 146.061 42.2949 146.192 42.1774C146.322 42.0599 146.427 41.9167 146.498 41.7571C146.569 41.5974 146.605 41.4248 146.604 41.2504C146.604 40.4734 146.136 40.0038 145.218 40.0038H142.93V42.497Z" fill="#14678F"></path>
<path d="M151.02 39.3513C153.038 39.3513 154.045 40.9345 154.045 42.6756C154.045 44.4167 153.038 45.9999 151.02 45.9999C149.002 45.9999 147.982 44.4167 147.982 42.6756C147.982 40.9345 148.993 39.3513 151.02 39.3513ZM151.02 45.4763C152.705 45.4763 153.434 44.0677 153.434 42.6756C153.434 41.2836 152.713 39.8707 151.02 39.8707C149.326 39.8707 148.618 41.2628 148.618 42.6756C148.618 44.0884 149.318 45.4597 151.02 45.4597V45.4763Z" fill="#14678F"></path>
<path d="M160.495 45.842H160.052L159.972 44.6827H159.951C159.753 45.0922 159.435 45.4342 159.039 45.6651C158.643 45.896 158.186 46.0053 157.727 45.9791C155.7 45.9791 154.693 44.396 154.693 42.6549C154.693 40.9138 155.7 39.3306 157.727 39.3306C159.079 39.3306 160.179 40.0536 160.411 41.4456H159.8C159.707 40.978 159.446 40.5591 159.065 40.266C158.685 39.9728 158.209 39.8251 157.727 39.85C156.042 39.85 155.304 41.2587 155.304 42.6549C155.304 44.0511 156.025 45.4556 157.727 45.4556C159.151 45.4556 159.981 44.4666 159.951 43.1161H157.765V42.6008H160.495V45.842Z" fill="#14678F"></path>
<path d="M161.679 39.4719H164.628C165.69 39.4719 166.583 39.9789 166.583 41.1341C166.612 41.5109 166.499 41.8852 166.266 42.1851C166.033 42.4849 165.696 42.6893 165.319 42.7588C166.161 42.8669 166.397 43.4403 166.444 44.1966C166.469 44.6371 166.469 45.5097 166.739 45.8297H166.065C165.943 45.5141 165.884 45.1783 165.892 44.8407C165.837 43.9473 165.765 42.9583 164.607 42.9998H162.281V45.8297H161.679V39.4719ZM162.29 42.497H164.577C164.753 42.5139 164.931 42.4942 165.099 42.4391C165.266 42.3841 165.421 42.2949 165.551 42.1774C165.682 42.0599 165.786 41.9167 165.857 41.7571C165.928 41.5974 165.964 41.4248 165.963 41.2504C165.963 40.4734 165.496 40.0038 164.577 40.0038H162.29V42.497Z" fill="#14678F"></path>
<path d="M169.562 39.4719H170.248L172.776 45.8421H172.119L171.335 43.8642H168.42L167.645 45.8421H166.987L169.562 39.4719ZM168.593 43.3447H171.12L169.856 40.0786L168.593 43.3447Z" fill="#14678F"></path>
<path d="M173.336 39.4719H174.238L176.463 45.0568L178.679 39.4719H179.58V45.8421H178.953V40.3362L176.753 45.8421H176.18L173.973 40.3362H173.952V45.8421H173.341L173.336 39.4719Z" fill="#14678F"></path>
<path d="M182.277 39.264C182.62 39.2665 182.955 39.3692 183.239 39.5592C183.523 39.7492 183.743 40.0179 183.872 40.3314C184.001 40.6449 184.034 40.9892 183.964 41.3207C183.895 41.6522 183.728 41.9561 183.484 42.1939C183.24 42.4318 182.93 42.5929 182.593 42.657C182.256 42.7211 181.907 42.6853 181.591 42.5541C181.275 42.4229 181.005 42.2022 180.816 41.9198C180.627 41.6375 180.527 41.3062 180.528 40.9677C180.528 40.7423 180.574 40.519 180.662 40.3109C180.75 40.1029 180.879 39.9141 181.042 39.7556C181.204 39.5972 181.397 39.4721 181.609 39.3877C181.821 39.3033 182.048 39.2613 182.277 39.264ZM182.277 42.4346C182.571 42.4437 182.861 42.3661 183.11 42.2119C183.359 42.0576 183.555 41.8336 183.675 41.5685C183.794 41.3034 183.831 41.0092 183.78 40.7236C183.728 40.438 183.592 40.1739 183.388 39.965C183.184 39.7561 182.922 39.6119 182.634 39.5509C182.347 39.4899 182.047 39.5148 181.774 39.6224C181.501 39.73 181.267 39.9155 181.101 40.1552C180.936 40.3948 180.846 40.6777 180.844 40.9677C180.837 41.1578 180.869 41.3473 180.937 41.525C181.006 41.7027 181.11 41.8649 181.244 42.0019C181.378 42.1388 181.538 42.2478 181.716 42.3221C181.893 42.3965 182.084 42.4347 182.277 42.4346ZM181.603 39.9746H182.386C182.867 39.9746 183.094 40.1616 183.094 40.5439C183.099 40.6152 183.088 40.6867 183.063 40.7537C183.039 40.8208 183 40.8819 182.949 40.9332C182.899 40.9845 182.838 41.0248 182.771 41.0515C182.704 41.0782 182.631 41.0907 182.559 41.0883L183.141 41.9733H182.803L182.252 41.1132H181.902V41.9733H181.59L181.603 39.9746ZM181.914 40.8597H182.247C182.525 40.8597 182.778 40.8597 182.778 40.5314C182.778 40.2032 182.546 40.2239 182.332 40.2239H181.91L181.914 40.8597Z" fill="#14678F"></path>
<path d="M182.277 0.768738C182.62 0.771206 182.955 0.873917 183.239 1.0639C183.523 1.25388 183.743 1.5226 183.872 1.83612C184.001 2.14964 184.034 2.49389 183.964 2.82539C183.895 3.15688 183.728 3.46075 183.484 3.69859C183.24 3.93644 182.93 4.0976 182.593 4.16171C182.256 4.22583 181.907 4.19002 181.591 4.05881C181.275 3.9276 181.005 3.70687 180.816 3.42452C180.627 3.14217 180.527 2.81086 180.528 2.47244C180.528 2.24679 180.573 2.02328 180.661 1.81496C180.749 1.60664 180.878 1.41767 181.04 1.25908C181.203 1.10049 181.396 0.975454 181.609 0.891267C181.821 0.80708 182.048 0.765427 182.277 0.768738ZM182.277 3.93928C182.469 3.93831 182.659 3.89923 182.835 3.82438C183.012 3.74953 183.171 3.64043 183.304 3.50358C183.437 3.36673 183.541 3.20491 183.609 3.02777C183.677 2.85063 183.708 2.66177 183.701 2.47244C183.701 2.09884 183.55 1.74054 183.283 1.47636C183.015 1.21218 182.651 1.06377 182.273 1.06377C181.894 1.06377 181.531 1.21218 181.263 1.47636C180.995 1.74054 180.844 2.09884 180.844 2.47244C180.837 2.66247 180.869 2.85201 180.937 3.02971C181.006 3.2074 181.11 3.3696 181.244 3.50656C181.378 3.64353 181.538 3.75246 181.716 3.82681C181.893 3.90117 182.084 3.93942 182.277 3.93928ZM181.603 1.47931H182.386C182.867 1.47931 183.094 1.6663 183.094 2.04859C183.098 2.11973 183.087 2.19093 183.062 2.2577C183.037 2.32446 182.998 2.38535 182.948 2.43651C182.897 2.48766 182.837 2.52798 182.77 2.5549C182.703 2.58183 182.631 2.59478 182.559 2.59294L183.141 3.47388H182.803L182.252 2.61788H181.902V3.47388H181.59L181.603 1.47931ZM181.902 2.36855H182.235C182.513 2.36855 182.766 2.36855 182.766 2.04028C182.766 1.71201 182.534 1.73278 182.319 1.73278H181.898L181.902 2.36855Z" fill="#14678F"></path>
</svg>

<svg xmlns="http://www.w3.org/2000/svg" viewBox="0 0 184 46"><path fill="#14678f" d="M77.535.744h-9.522L55.795 33.023V.743h-13.82l-6.193 23.65h-.1L29.487.747H15.69V36.21h8.81V9.287h.1l7.555 26.923h7.162l7.554-26.923h.101V36.21h17.215l2.275-6.358h12.539l2.207 6.358h9.77zM68.62 22.996l4.078-12.416h.084l3.977 12.416zM113.544 8.693h-10.731V36.21h-9.366V8.693H82.721V.743h30.823z"/><path fill="#14678f" d="M136.505 13.41c-.501-3.562-3.324-5.465-7.267-5.465-6.042 0-8.359 5.27-8.359 10.534s2.334 10.53 8.359 10.53c4.381 0 6.901-2.494 7.25-6.558h9.37c-.505 9.142-7.305 14.503-16.431 14.503-10.849 0-17.885-8.195-17.885-18.475S118.578 0 129.457 0c7.756 0 16.165 4.866 16.431 13.41zM148.745 1.077h9.365v12.915h12.341V1.077h9.365v35.467h-9.365V21.942H158.11v14.602h-9.365zM2.844 25.456v3.74h9.859v3.262h-9.86v3.74H0V25.455zM0 24.056v-3.262h4.634v-4.297H0V13.23h12.703v3.266H7.478v4.297h5.225v3.261zM0 11.024V1.051h2.65v6.72h2.225V1.62h2.561v6.15h2.419V.867h2.848v10.156zM.22 39.472h.686l3.745 5.402v-5.402h.616v6.37h-.67L.85 40.44v5.402H.22zM8.633 39.472h.682l2.528 6.37h-.661l-.784-1.978h-2.92l-.775 1.978h-.665zm-.973 3.873h2.528l-1.264-3.266zM11.119 39.472h5.098v.515h-2.242v5.855h-.598v-5.855h-2.258zM16.865 39.472h.611v6.37h-.61zM21.512 39.351c2.018 0 3.025 1.584 3.025 3.325 0 1.74-1.007 3.324-3.025 3.324s-3.033-1.583-3.033-3.324c0-1.742 1.006-3.325 3.033-3.325m0 6.125c1.685 0 2.414-1.408 2.414-2.8s-.72-2.805-2.414-2.805-2.423 1.408-2.423 2.805c0 1.396.72 2.784 2.423 2.784zM25.485 39.472h.683l3.75 5.402v-5.402h.61v6.37h-.665l-3.75-5.402v5.402h-.628zM34.076 39.472h.687l2.527 6.37h-.665l-.784-1.978h-2.928l-.771 1.978h-.649zm-.973 3.873h2.527l-1.264-3.266zM37.868 39.472h.615v5.855h3.602v.515h-4.213zM44.132 39.472h2.95c1.061 0 1.954.507 1.954 1.662a1.52 1.52 0 0 1-.316 1.051c-.233.3-.57.504-.947.574.842.108 1.078.681 1.124 1.438.026.44.026 1.313.295 1.633h-.674a2.6 2.6 0 0 1-.173-.99c-.05-.893-.122-1.882-1.285-1.84h-2.325v2.83h-.603zm.611 3.025h2.288a1.28 1.28 0 0 0 .974-.32 1.25 1.25 0 0 0 .412-.927c0-.777-.468-1.246-1.386-1.246h-2.288zM50.136 39.472h4.44v.515h-3.829v2.302h3.586v.52h-3.586v2.518h3.872v.515h-4.483zM55.765 43.748c-.03 1.309.927 1.712 2.106 1.712.675 0 1.686-.366 1.686-1.293 0-.723-.73-1.01-1.323-1.155l-1.433-.345c-.758-.187-1.449-.544-1.449-1.537 0-.623.421-1.795 2.212-1.795 1.264 0 2.389.681 2.38 1.982h-.615c-.034-.973-.842-1.463-1.752-1.463-.843 0-1.614.32-1.614 1.267 0 .599.45.832.973.973l1.568.386c.91.241 1.685.632 1.685 1.663 0 .44-.177 1.824-2.456 1.824-1.526 0-2.642-.682-2.57-2.232zM61.196 39.472h.632v6.37h-.632zM63.15 39.472h2.225c1.934.041 2.95 1.097 2.95 3.187s-1.02 3.142-2.95 3.183h-2.224zm.612 5.855h1.306c1.845 0 2.65-.769 2.65-2.668s-.805-2.68-2.65-2.672h-1.306zM69.319 39.472h4.44v.515h-3.83v2.302h3.586v.52H69.93v2.518h3.876v.515h-4.487zM74.652 39.472h.683l3.745 5.402h.021v-5.402h.611v6.37h-.682l-3.75-5.402v5.402h-.61zM80.306 39.472h5.115v.515h-2.242v5.855h-.615v-5.855h-2.241zM88.493 39.472h.901l2.225 5.585 2.229-5.585h.901v6.37h-.615v-5.506l-2.195 5.506h-.62l-2.207-5.506v5.506h-.615zM97.896 39.472h.687l2.528 6.37h-.657l-.784-1.978h-2.95l-.766 1.978h-.661zm-.973 3.873h2.528l-1.243-3.266zM100.382 39.472h5.098v.515h-2.242v5.855h-.611v-5.855h-2.245zM110.789 41.4a1.93 1.93 0 0 0-.702-1.13 1.97 1.97 0 0 0-1.274-.416c-1.686 0-2.423 1.409-2.423 2.805s.721 2.8 2.423 2.8c1.192 0 1.946-.91 2.064-2.044h.611c-.168 1.563-1.171 2.564-2.675 2.564-2.027 0-3.034-1.583-3.034-3.324s1.007-3.324 3.034-3.324c1.217 0 2.422.723 2.587 2.077zM112.427 39.472h.611v2.788h3.817v-2.767h.615v6.37h-.615v-3.087h-3.817v3.087h-.611zM118.81 39.472h.615v6.37h-.615zM120.757 39.472h.682l3.75 5.402v-5.402h.611v6.37h-.683l-3.745-5.402h-.021v5.402h-.611zM132.781 45.842h-.442l-.08-1.16c-.199.41-.517.75-.913.982-.396.23-.853.34-1.312.315-2.026 0-3.037-1.583-3.037-3.324s1.011-3.324 3.037-3.324c1.348 0 2.448.723 2.684 2.115h-.615a1.98 1.98 0 0 0-.733-1.179 2.02 2.02 0 0 0-1.336-.417c-1.685 0-2.427 1.409-2.427 2.805s.725 2.8 2.427 2.8c1.42 0 2.25-.988 2.225-2.339h-2.191v-.515h2.73zM136.644 39.472h2.857c1.15 0 1.909.669 1.909 1.82s-.759 1.82-1.909 1.82h-2.258v2.73h-.611zm.599 3.12h2.106c.843 0 1.429-.415 1.429-1.3s-.586-1.305-1.429-1.305h-2.106zM142.319 39.472h2.95c1.061 0 1.954.507 1.954 1.662.03.377-.083.751-.316 1.051a1.56 1.56 0 0 1-.948.574c.843.108 1.079.681 1.125 1.438.026.44.026 1.313.295 1.633h-.674a2.6 2.6 0 0 1-.173-.99c-.054-.893-.126-1.882-1.285-1.84h-2.317v2.83h-.611zm.611 3.025h2.288a1.28 1.28 0 0 0 .974-.32 1.23 1.23 0 0 0 .412-.927c0-.777-.468-1.246-1.386-1.246h-2.288zM151.02 39.351c2.018 0 3.025 1.584 3.025 3.325 0 1.74-1.007 3.324-3.025 3.324s-3.038-1.583-3.038-3.324c0-1.742 1.011-3.325 3.038-3.325m0 6.125c1.685 0 2.414-1.408 2.414-2.8s-.721-2.805-2.414-2.805-2.402 1.392-2.402 2.805c0 1.412.7 2.784 2.402 2.784zM160.495 45.842h-.443l-.08-1.16h-.021c-.198.41-.516.752-.912.983s-.853.34-1.312.314c-2.027 0-3.034-1.583-3.034-3.324s1.007-3.324 3.034-3.324c1.352 0 2.452.723 2.684 2.115h-.611a1.98 1.98 0 0 0-.735-1.18 2.02 2.02 0 0 0-1.338-.416c-1.685 0-2.423 1.409-2.423 2.805s.721 2.8 2.423 2.8c1.424 0 2.254-.988 2.224-2.339h-2.186v-.515h2.73zM161.679 39.472h2.949c1.062 0 1.955.507 1.955 1.662.029.377-.084.751-.317 1.051s-.57.504-.947.574c.842.108 1.078.681 1.125 1.438.025.44.025 1.313.295 1.633h-.674a2.6 2.6 0 0 1-.173-.99c-.055-.893-.127-1.882-1.285-1.84h-2.326v2.83h-.602zm.611 3.025h2.287a1.28 1.28 0 0 0 .974-.32 1.24 1.24 0 0 0 .412-.927c0-.777-.467-1.246-1.386-1.246h-2.287zM169.562 39.472h.686l2.528 6.37h-.657l-.784-1.978h-2.915l-.775 1.978h-.658zm-.969 3.873h2.527l-1.264-3.266zM173.336 39.472h.902l2.225 5.585 2.216-5.585h.901v6.37h-.627v-5.506l-2.2 5.506h-.573l-2.207-5.506h-.021v5.506h-.611zM182.277 39.264c.343.002.678.105.962.295s.504.459.633.772c.129.314.162.658.092.99a1.7 1.7 0 0 1-.48.873 1.759 1.759 0 0 1-1.893.36 1.73 1.73 0 0 1-.775-.634 1.702 1.702 0 0 1 .793-2.532 1.8 1.8 0 0 1 .668-.124m0 3.17c.294.01.584-.068.833-.222a1.47 1.47 0 0 0 .565-.644 1.44 1.44 0 0 0-.287-1.603 1.499 1.499 0 0 0-1.614-.343 1.48 1.48 0 0 0-.673.533 1.45 1.45 0 0 0-.257.813 1.41 1.41 0 0 0 .4 1.034 1.43 1.43 0 0 0 1.033.433m-.674-2.46h.783c.481 0 .708.188.708.57a.5.5 0 0 1-.145.39.52.52 0 0 1-.39.154l.582.885h-.338l-.551-.86h-.35v.86h-.312zm.311.886h.333c.278 0 .531 0 .531-.329 0-.328-.232-.307-.446-.307h-.422zM182.277.769c.343.002.678.105.962.295s.504.459.633.772c.129.314.162.658.092.99a1.7 1.7 0 0 1-.48.873 1.758 1.758 0 0 1-1.893.36 1.73 1.73 0 0 1-.775-.634 1.702 1.702 0 0 1 .793-2.534c.212-.084.439-.126.668-.122m0 3.17a1.45 1.45 0 0 0 1.027-.435 1.4 1.4 0 0 0 .397-1.032c0-.373-.151-.731-.418-.996a1.44 1.44 0 0 0-2.02 0 1.4 1.4 0 0 0-.419.996 1.41 1.41 0 0 0 .4 1.035 1.43 1.43 0 0 0 1.033.432m-.674-2.46h.783c.481 0 .708.187.708.57a.514.514 0 0 1-.535.544l.582.88h-.338l-.551-.855h-.35v.856h-.312zm.299.89h.333c.278 0 .531 0 .531-.329 0-.328-.232-.307-.447-.307h-.421z"/></svg>
